X: 19196
T: Island Angel
R: reel
M: 4/4
K: Gmajor
B2 B2 B3 A/B/|c3 =F G2 ED|B2 B2 B2 A>G|G3 D G>D G/D/G/A/|
B2 B2 B3 A/B/|c3 =F G2 ED|B2 B2 B2 A>G|G3 F G4||
g3f d3 (3d/e/f/|g>f ga b2 ag|=f3 e c3 (3A/_B/c/|=f f/e/ f f/e/ =fe cf|
g3f d3 (3d/e/f/|g2g/ b/(3a/g/f/ g g/f/ dB|c2 B>G A2A/ d/c/A/|B<d G>F G4||

